!!!COA: Josquin des Prez
!!!CDT: ~1450-1521/08/27
!!!COA2: La Rue, Pierre de
!!!CDT2: ~1452///-1518/11/20/
!!!OTL: Cent mille regretz
!!!AGN: Song; Chanson
!!!SCT: NJE 29.1
!!!SCA: New Josquin Edition 29.1
!!!voices: 5
**kern	**kern	**kern	**kern	**kern
*staff5	*staff4	*staff3	*staff2	*staff1
*Ivox	*Ivox	*Ivox	*Ivox	*Ivox
*I"Bassus	*I"Quintus	*I"Tenor	*I"Contratenor	*I"Superius
*I'B	*I'Q	*I'T	*I'Ct	*I'S
*clefF4	*clefF4	*clefGv2	*clefGv2	*clefG2
*k[]	*k[]	*k[]	*k[]	*k[]
*M2/1	*M2/1	*M2/1	*M2/1	*M2/1
*met(C2)	*met(C2)	*met(C2)	*met(C2)	*met(C2)
=1-	=1-	=1-	=1-	=1-
!LO:TX:Z=6:t=Canon at the upper fourth	!	!	!	!
0r	0r	0r	1.d	1a
.	.	.	.	2a/
.	.	.	2d\	[2b\
=2.	=2.	=2.	=2.	=2.
0r	0r	0r	1A	4b\]
.	.	.	.	4a/
.	.	.	.	1a
.	.	.	1B	.
.	.	.	.	2g#i/
=3	=3	=3	=3	=3
1.D	0r	1.F	1A	0a
.	.	.	1d	.
2D\	.	2F/	.	.
=4.	=4.	=4.	=4.	=4.
1AA	0r	1E	2c\	1r
.	.	.	2.A/	.
1BB	.	1D	.	1dd
.	.	.	4G#i/	.
.	.	.	2G#i/	.
=5	=5	=5	=5	=5
0AA	0r	[0E	0A	2cc\
.	.	.	.	2.a/
.	.	.	.	4b\
.	.	.	.	4cc\
.	.	.	.	4a/
=6.	=6.	=6.	=6.	=6.
0r	1.G	0E]	0r	2b\
.	.	.	.	2.g/
.	.	.	.	4f/
.	2G\	.	.	[2e/
=7	=7	=7	=7	=7
0r	1D	0r	0r	2e/]
.	.	.	.	1d
.	1E	.	.	.
.	.	.	.	2c#i/
=8.	=8.	=8.	=8.	=8.
1r	0D	2r	0r	0d
.	.	2A/	.	.
2r	.	2A/	.	.
2D\	.	[2A/	.	.
=9	=9	=9	=9	=9
2D\	0r	4A/]	2r	0r
.	.	4G/	.	.
2.D\	.	4F/	2d\	.
.	.	4E/	.	.
.	.	2D/	2d\	.
4C/	.	.	.	.
4BB/	.	2A/	[2d\	.
4AA/	.	.	.	.
=10.	=10.	=10.	=10.	=10.
2GG/	0r	2B\	2d\]	0r
2BB/	.	1G	2B\	.
1AA	.	.	1c	.
.	.	2F#i/	.	.
=11	=11	=11	=11	=11
0GG	1r	0G	2B\	2r
.	.	.	1d	2g/
.	2r	.	.	2g/
.	2G\	.	[2d\	[2g/
=12.	=12.	=12.	=12.	=12.
0r	2G\	0r	4d\]	4g/]
.	.	.	4c\	4f/
.	2.G\	.	4B\	2d/
.	.	.	4A/	.
.	.	.	2G/	2e/
.	4F\	.	.	.
.	4E\	.	2d\	[2g/
.	4D\	.	.	.
=13	=13	=13	=13	=13
0r	2C/	2r	2e\	2g/]
.	2E\	1G	1c	2e/
.	1D	.	.	1f
.	.	2F/	2B\	.
=14.	=14.	=14.	=14.	=14.
2r	0C	2G/	1c	1.e
2G\	.	2E/	.	.
2G\	.	4C/	2r	.
.	.	4D/	.	.
[2G\	.	4E/	2c\	[2g/
.	.	4F/	.	.
=15	=15	=15	=15	=15
2G\]	0r	2G/	2B\	4g/]
.	.	.	.	4a/
4F\	.	1D	2.d\	4b\
4E\	.	.	.	4cc\
2D\	.	.	.	2.dd\
.	.	.	4c\	.
2G\	.	[2d\	[2B\	.
.	.	.	.	4cc\
=16.	=16.	=16.	=16.	=16.
2G\	0r	2d\]	2B\]	2b\
2E\	.	2G/	1e	2g/
1F	.	2c\	.	1a
.	.	2A/	2d\	.
=17	=17	=17	=17	=17
[0E	2r	2B\	[0e	1g
.	2c\	2G/	.	.
.	2c\	1G	.	2r
.	[2c\	.	.	[2cc\
=18.	=18.	=18.	=18.	=18.
0E_	2c\]	0r	0e]	4cc\]
.	.	.	.	4b\
.	4B\	.	.	4g/
.	4A\	.	.	4a/
.	2G\	.	.	2b\
.	2c\	.	.	[2e/
=19	=19	=19	=19	=19
0E]	2c\	2r	1r	2e/]
.	2A\	2E/	.	1a
.	1B	2E/	2r	.
.	.	2E/	2e\	2g#i/
=20.	=20.	=20.	=20.	=20.
2r	[0A	2.C/	2e\	[0a
2AA/	.	.	2e\	.
.	.	4D/	.	.
2.AA/	.	2E/	2.c\	.
.	.	2F/	.	.
4BB/	.	.	4d\	.
=21	=21	=21	=21	=21
2C/	0A_	2E/	2e\	0a]
2D\	.	2.A/	1f	.
2D\	.	.	.	.
.	.	4G/	.	.
2C/	.	2E/	[2e\	.
=22.	=22.	=22.	=22.	=22.
1D	0A]	2F/	2e\]	1r
.	.	2D/	1d	.
1AA	.	1E	.	2r
.	.	.	2c#i\	2a/
=23	=23	=23	=23	=23
0r	2r	1D	1d	2a/
.	2D\	.	.	2a/
.	2.D\	1r	2r	2.f/
.	.	.	2d\	.
.	4E\	.	.	4g/
=24.	=24.	=24.	=24.	=24.
0r	2F\	0r	2d\	2a/
.	2G\	.	2d\	1b-i
.	2G\	.	2B-i\	.
.	2F\	.	[2d\	[2a/
=25	=25	=25	=25	=25
0r	1G	1r	4d\]	2a/]
.	.	.	4c\	.
.	.	.	2B-i\	1g
.	1D	1D	1A	.
.	.	.	.	2f#i/
=26.	=26.	=26.	=26.	=26.
1GG	0r	2D/	1G	0g
.	.	2D/	.	.
2GG/	.	1G	2r	.
2GG/	.	.	2G/	.
=27	=27	=27	=27	=27
1C	0r	2G/	2G/	0r
.	.	2G/	2G/	.
2C/	.	2E/	1c	.
2C/	.	2E/	.	.
=28.	=28.	=28.	=28.	=28.
2AA/	0r	2.A/	2c\	0r
2.C/	.	.	2c\	.
.	.	4G/	.	.
.	.	1E	4G/	.
4D\	.	.	4B\	.
4E\	.	.	4c\	.
4F\	.	.	4d\	.
=29	=29	=29	=29	=29
4G\	1C	2.E/	4e\	1g
4F\	.	.	4d\	.
4E\	.	.	4c\	.
4D\	.	4F/	4B\	.
1E	2C/	1G	1c	2g/
.	2C/	.	.	2g/
=30.	=30.	=30.	=30.	=30.
0D	1F	0A	0d	1f
.	2F\	.	.	2d/
.	2F\	.	.	[2f/
=31	=31	=31	=31	=31
0r	2D\	0r	0r	4f/]
.	.	.	.	4g/
.	2.F\	.	.	4a/
.	.	.	.	4b\
.	.	.	.	4cc\
.	4G\	.	.	4b\
.	4A\	.	.	4a/
.	4B\	.	.	4g/
=32.	=32.	=32.	=32.	=32.
0r	4c\	1r	0r	2a/
.	4B\	.	.	.
.	4A\	.	.	1g
.	4G\	.	.	.
.	1A	1D	.	.
.	.	.	.	2f#i/
=33	=33	=33	=33	=33
1GG	0G	2D/	1r	0g
.	.	2D/	.	.
2GG/	.	1G	1G	.
2GG/	.	.	.	.
=34.	=34.	=34.	=34.	=34.
1C	0r	2G/	2G/	0r
.	.	2G/	2G/	.
2C/	.	2E/	1c	.
2C/	.	2E/	.	.
=35	=35	=35	=35	=35
2AA/	0r	2.A/	2c\	0r
2.C/	.	.	2c\	.
.	.	4G/	.	.
.	.	1E	4A/	.
4D\	.	.	4B\	.
4E\	.	.	4c\	.
4F\	.	.	4d\	.
=36.	=36.	=36.	=36.	=36.
4G\	1C	2.E/	4e\	1g
4F\	.	.	4d\	.
4E\	.	.	4c\	.
4D\	.	4F/	4B\	.
1E	2C/	1G	1c	2g/
.	2C/	.	.	2g/
=37	=37	=37	=37	=37
0D	1F	0A	1d	1f
.	2F\	.	2r	2d/
.	2F\	.	2d\	[2f/
=38.	=38.	=38.	=38.	=38.
0r	2D\	0r	2d\	4f/]
.	.	.	.	4g/
.	2.F\	.	2c\	4a/
.	.	.	.	4b\
.	.	.	4A/	4cc\
.	4G\	.	4B\	4b\
.	4A\	.	4c\	4a/
.	4B\	.	4d\	4g/
=39	=39	=39	=39	=39
0r	4c\	0r	4e\	2a/
.	4B\	.	4f\	.
.	4A\	.	1g	2g/
.	4G\	.	.	.
.	1A	.	.	1cc
.	.	.	2f#i\	.
=40.	=40.	=40.	=40.	=40.
0r	0G	2r	0g	1b
.	.	2G/	.	.
.	.	2G/	.	2r
.	.	2G/	.	2g/
=41	=41	=41	=41	=41
0r	0r	2c\	2r	2g/
.	.	2c\	2c\	2g/
.	.	2A/	2c\	2cc\
.	.	2A/	2c\	2cc\
=42.	=42.	=42.	=42.	=42.
1D	0r	2.d\	2f\	2a/
.	.	.	2f\	2a/
.	.	4c\	.	.
2D\	.	2B\	[1d	2.dd\
2D\	.	2A/	.	.
.	.	.	.	4cc\
=43	=43	=43	=43	=43
2G\	0r	2.G/	2d\]	2.b\
2G\	.	.	2d\	.
.	.	4A/	.	4a/
2E\	.	2B\	2.g\	1g
2E\	.	[2c\	.	.
.	.	.	4f\	.
=44.	=44.	=44.	=44.	=44.
2.A\	0r	2c\]	2e\	2a/
.	.	1A	2e\	2.cc\
4G\	.	.	.	.
1F	.	.	1d	.
.	.	.	.	4b\
.	.	[2d\	.	[2a/
=45	=45	=45	=45	=45
0E	1G	4d\]	0e	2a/]
.	.	4c\	.	.
.	.	4B\	.	4g/
.	.	4A/	.	4f/
.	2G\	1B	.	1g
.	2G\	.	.	.
=46.	=46.	=46.	=46.	=46.
2r	2c\	0A	2r	1a
2AA/	2c\	.	2e\	.
2D\	2A\	.	2f\	2r
2D\	2A\	.	2f\	2a/
=47	=47	=47	=47	=47
2.BB/	2.d\	1r	1.d	2.b\
4AA/	4c\	.	.	4cc\
1GG	1B	1G	.	1dd
.	.	.	4e\	.
.	.	.	4d\	.
=48.	=48.	=48.	=48.	=48.
2r	0A	2c\	0e	2cc\
2AA/	.	2c\	.	2.a/
2AA/	.	1A	.	.
.	.	.	.	4g/
2C/	.	.	.	2e/
=49	=49	=49	=49	=49
4D\	2r	2A/	0r	4f/
4C/	.	.	.	4e/
4BB/	2D\	2d\	.	4d/
4AA/	.	.	.	4c/
1BB	2G\	2d\	.	1d
.	2G\	2G/	.	.
=50.	=50.	=50.	=50.	=50.
0AA	2.E\	2A/	1e	1c
.	.	4G/	.	.
.	4D\	4F/	.	.
.	1C	1E	2e\	2r
.	.	.	2c\	2e/
=51	=51	=51	=51	=51
0r	2r	0D	2d\	2f/
.	2D\	.	2.f\	2.a/
.	2D\	.	.	.
.	.	.	4e\	4g/
.	2F\	.	4d\	2f/
.	.	.	4c\	.
=52.	=52.	=52.	=52.	=52.
0r	4G\	1r	2B\	4e/
.	4F\	.	.	4d/
.	4E\	.	1A	1d
.	4D\	.	.	.
.	1E	1C	.	.
.	.	.	2G/	2c#i/
=53	=53	=53	=53	=53
1D	0D	2F/	1A	1d
.	.	2F/	.	.
2D\	.	1D	1d	2r
2D\	.	.	.	2a/
=54.	=54.	=54.	=54.	=54.
2.BB/	0r	2D/	2d\	2.b\
.	.	2.G/	2d\	.
4AA/	.	.	.	4cc\
1GG	.	.	2.B\	2dd\
.	.	4F/	.	.
.	.	2D/	.	2b\
.	.	.	4A/	.
=55	=55	=55	=55	=55
1C	0r	1E	2G/	2cc\
.	.	.	2G/	2.g/
2BB/	.	2D/	2G/	.
.	.	.	.	4f/
[2E\	.	[2G/	[2c\	4e/
.	.	.	.	4d/
=56.	=56.	=56.	=56.	=56.
2E\]	1G	4G/]	2c\]	1c
.	.	4F/	.	.
4D\	.	2E/	4B\	.
4C/	.	.	4A/	.
1BB	2G\	1D	1G	1d
.	2G\	.	.	.
=57	=57	=57	=57	=57
[0AA	2.E\	2r	2A/	2c/
.	.	1E	1e	2.cc\
.	4D\	.	.	.
.	1C	.	.	.
.	.	.	.	4b\
.	.	2E/	[2e\	4a/
.	.	.	.	4g/
=58.	=58.	=58.	=58.	=58.
0AA_	1F	2F/	4e\]	2f/
.	.	.	4d\	.
.	.	1A	4c\	4e/
.	.	.	4B\	4d/
.	2E\	.	[1A	2c/
.	[2A\	4G/	.	[2e/
.	.	4F/	.	.
=59	=59	=59	=59	=59
0AA]	2A\]	2E/	1A]	4e/]
.	.	.	.	4d/
.	4G\	2.A/	.	1d
.	4F\	.	.	.
.	1E	.	[1Al	.
.	.	4G/	.	.
.	.	2E/	.	2c#i/
=60.	=60.	=60.	=60.	=60.
[0Dl	[0Dl	1F	0A_	[0dl
.	.	1D	.	.
=61	=61	=61	=61	=61
0D]	0D]	0Fl	0A]	0d]
==	==	==	==	==
*-	*-	*-	*-	*-
!!!RDF**kern: l=long note in original notation
!!!RDF**kern: i=editorial accidental
!!!ENC: Will Watson 22/08/2011
!!!END: 2011/08/22/
!!!EED: Jesse Rodin
!!!EEV: 2011/12/06/
!!attribution-level@Jos: 4 (questionable)
!!!ONB: Translated from MusicXML and edited on 2011/09/21/ by Craig Sapp
!!muse2ps:  C^La Rue?/Josquin?\n@{SCT}^i2I100v90,90,90,90,90,130Q16
